Newaita-dark/mimetypes/scalable/application-x-bzdvi.svg

<?xml version="1.0" encoding="UTF-8"?>
<svg xmlns="http://www.w3.org/2000/svg" xmlns:xlink="http://www.w3.org/1999/xlink" width="512pt" height="512pt" viewBox="0 0 512 512" version="1.1">
<defs>
<linearGradient id="linear0" gradientUnits="userSpaceOnUse" x1="254" y1="233.5" x2="254" y2="254.666672" gradientTransform="matrix(1.000095,0,0,1.000095,-0.000061041,215.020562)">
<stop offset="0" style="stop-color:rgb(0%,0%,0%);stop-opacity:0.27451;"/>
<stop offset="1" style="stop-color:rgb(0%,0%,0%);stop-opacity:0;"/>
</linearGradient>
<radialGradient id="radial0" gradientUnits="userSpaceOnUse" cx="450.908936" cy="189.579361" fx="450.908936" fy="189.579361" r="21.166656" gradientTransform="matrix(0.00000278673,-1.250119,-2.250215,-0.00000162462,849.966879,1017.525321)">
<stop offset="0" style="stop-color:rgb(0%,0%,0%);stop-opacity:0.313725;"/>
<stop offset="0.222222" style="stop-color:rgb(0%,0%,0%);stop-opacity:0.27451;"/>
<stop offset="1" style="stop-color:rgb(0%,0%,0%);stop-opacity:0;"/>
</radialGradient>
<radialGradient id="radial1" gradientUnits="userSpaceOnUse" cx="450.908936" cy="189.579361" fx="450.908936" fy="189.579361" r="21.166656" gradientTransform="matrix(-0.00000278673,1.250119,2.250215,0.00000162462,-339.272325,-120.439662)">
<stop offset="0" style="stop-color:rgb(0%,0%,0%);stop-opacity:0.313725;"/>
<stop offset="0.222222" style="stop-color:rgb(0%,0%,0%);stop-opacity:0.27451;"/>
<stop offset="1" style="stop-color:rgb(0%,0%,0%);stop-opacity:0;"/>
</radialGradient>
<radialGradient id="radial2" gradientUnits="userSpaceOnUse" cx="450.908936" cy="189.579361" fx="450.908936" fy="189.579361" r="21.166656" gradientTransform="matrix(-0.00000278673,-1.250119,2.250215,-0.00000162462,-339.272325,1017.525321)">
<stop offset="0" style="stop-color:rgb(0%,0%,0%);stop-opacity:0.313725;"/>
<stop offset="0.222222" style="stop-color:rgb(0%,0%,0%);stop-opacity:0.27451;"/>
<stop offset="1" style="stop-color:rgb(0%,0%,0%);stop-opacity:0;"/>
</radialGradient>
<radialGradient id="radial3" gradientUnits="userSpaceOnUse" cx="450.908936" cy="189.579361" fx="450.908936" fy="189.579361" r="21.166656" gradientTransform="matrix(0.00000278673,1.250119,-2.250215,0.00000162462,849.966856,-120.43967)">
<stop offset="0" style="stop-color:rgb(0%,0%,0%);stop-opacity:0.313725;"/>
<stop offset="0.222222" style="stop-color:rgb(0%,0%,0%);stop-opacity:0.27451;"/>
<stop offset="1" style="stop-color:rgb(0%,0%,0%);stop-opacity:0;"/>
</radialGradient>
<linearGradient id="linear1" gradientUnits="userSpaceOnUse" x1="254" y1="-168.666656" x2="254" y2="233.5" gradientTransform="matrix(1.000095,0,0,1.000095,0,215.020531)">
<stop offset="0" style="stop-color:rgb(62.352941%,65.882353%,85.490196%);stop-opacity:1;"/>
<stop offset="1" style="stop-color:rgb(47.45098%,52.54902%,79.607843%);stop-opacity:1;"/>
</linearGradient>
<linearGradient id="linear2" gradientUnits="userSpaceOnUse" x1="148.166687" y1="-168.666809" x2="148.166687" y2="233.499863" gradientTransform="matrix(1,0,0,1,-31.750023,0.000142415)">
<stop offset="0" style="stop-color:rgb(47.45098%,52.54902%,79.607843%);stop-opacity:1;"/>
<stop offset="1" style="stop-color:rgb(36.078431%,41.960784%,75.294118%);stop-opacity:1;"/>
</linearGradient>
<linearGradient id="linear3" gradientUnits="userSpaceOnUse" x1="148.166687" y1="-168.666809" x2="148.166687" y2="233.499863" gradientTransform="matrix(1,0,0,1,201.083313,0.000142415)">
<stop offset="0" style="stop-color:rgb(47.45098%,52.54902%,79.607843%);stop-opacity:1;"/>
<stop offset="1" style="stop-color:rgb(36.078431%,41.960784%,75.294118%);stop-opacity:1;"/>
</linearGradient>
<linearGradient id="linear4" gradientUnits="userSpaceOnUse" x1="960" y1="1115.118164" x2="960" y2="675.118103" gradientTransform="matrix(0.264583,0,0,0.264583,-116.416687,-215)">
<stop offset="0" style="stop-color:rgb(74.117647%,74.117647%,74.117647%);stop-opacity:1;"/>
<stop offset="1" style="stop-color:rgb(87.843137%,87.843137%,87.843137%);stop-opacity:1;"/>
</linearGradient>
<linearGradient id="linear5" gradientUnits="userSpaceOnUse" x1="164.041641" y1="64.166664" x2="164.041641" y2="0.666662" gradientTransform="matrix(1,0,0,1,-21.16667,42.33334)">
<stop offset="0" style="stop-color:rgb(74.117647%,74.117647%,74.117647%);stop-opacity:1;"/>
<stop offset="1" style="stop-color:rgb(87.843137%,87.843137%,87.843137%);stop-opacity:1;"/>
</linearGradient>
<linearGradient id="linear6" gradientUnits="userSpaceOnUse" x1="158.75" y1="-115.75" x2="158.75" y2="286.416656" gradientTransform="matrix(1,0,0,1,-21.16667,-52.91666)">
<stop offset="0" style="stop-color:rgb(62.352941%,65.882353%,85.490196%);stop-opacity:1;"/>
<stop offset="1" style="stop-color:rgb(47.45098%,52.54902%,79.607843%);stop-opacity:1;"/>
</linearGradient>
<linearGradient id="linear7" gradientUnits="userSpaceOnUse" x1="960" y1="1115.118164" x2="960" y2="675.118103" gradientTransform="matrix(0.264583,0,0,0.264583,116.416649,-215)">
<stop offset="0" style="stop-color:rgb(74.117647%,74.117647%,74.117647%);stop-opacity:1;"/>
<stop offset="1" style="stop-color:rgb(87.843137%,87.843137%,87.843137%);stop-opacity:1;"/>
</linearGradient>
<linearGradient id="linear8" gradientUnits="userSpaceOnUse" x1="164.041641" y1="64.166664" x2="164.041641" y2="0.666662" gradientTransform="matrix(1,0,0,1,211.666672,42.33334)">
<stop offset="0" style="stop-color:rgb(74.117647%,74.117647%,74.117647%);stop-opacity:1;"/>
<stop offset="1" style="stop-color:rgb(87.843137%,87.843137%,87.843137%);stop-opacity:1;"/>
</linearGradient>
<linearGradient id="linear9" gradientUnits="userSpaceOnUse" x1="158.75" y1="-115.75" x2="158.75" y2="286.416656" gradientTransform="matrix(1,0,0,1,211.666672,-52.91666)">
<stop offset="0" style="stop-color:rgb(62.352941%,65.882353%,85.490196%);stop-opacity:1;"/>
<stop offset="1" style="stop-color:rgb(47.45098%,52.54902%,79.607843%);stop-opacity:1;"/>
</linearGradient>
</defs>
<g id="surface1">
<path style=" stroke:none;fill-rule:nonzero;fill:rgb(0%,0%,0%);fill-opacity:0.196078;" d="M 63.507812 448.542969 C 51.777344 448.542969 42.335938 439.101562 42.335938 427.375 L 42.335938 424.726562 C 42.335938 436.457031 51.777344 445.898438 63.507812 445.898438 L 444.542969 445.898438 C 456.269531 445.898438 465.710938 436.457031 465.710938 424.726562 L 465.710938 427.375 C 465.710938 439.101562 456.269531 448.542969 444.542969 448.542969 Z M 63.507812 448.542969 "/>
<path style=" stroke:none;fill-rule:nonzero;fill:url(#linear0);" d="M 82.027344 448.542969 L 428.664062 448.542969 L 428.664062 469.710938 L 82.027344 469.710938 Z M 82.027344 448.542969 "/>
<path style=" stroke:none;fill-rule:nonzero;fill:url(#radial0);" d="M 428.664062 448.542969 L 471.003906 448.542969 L 471.003906 427.375 L 428.664062 427.375 Z M 428.664062 448.542969 "/>
<path style=" stroke:none;fill-rule:nonzero;fill:url(#radial1);" d="M 82.027344 448.542969 L 39.691406 448.542969 L 39.691406 469.710938 L 82.027344 469.710938 Z M 82.027344 448.542969 "/>
<path style=" stroke:none;fill-rule:nonzero;fill:url(#radial2);" d="M 82.027344 448.542969 L 39.691406 448.542969 L 39.691406 427.375 L 82.027344 427.375 Z M 82.027344 448.542969 "/>
<path style=" stroke:none;fill-rule:nonzero;fill:url(#radial3);" d="M 428.664062 448.542969 L 471.003906 448.542969 L 471.003906 469.710938 L 428.664062 469.710938 Z M 428.664062 448.542969 "/>
<path style=" stroke:none;fill-rule:nonzero;fill:url(#linear1);" d="M 58.214844 46.335938 L 449.835938 46.335938 C 458.601562 46.335938 465.710938 53.445312 465.710938 62.214844 L 465.710938 432.667969 C 465.710938 441.433594 458.601562 448.542969 449.835938 448.542969 L 58.214844 448.542969 C 49.445312 448.542969 42.335938 441.433594 42.335938 432.667969 L 42.335938 62.214844 C 42.335938 53.445312 49.445312 46.335938 58.214844 46.335938 Z M 58.214844 46.335938 "/>
<path style=" stroke:none;fill-rule:nonzero;fill:rgb(100%,100%,100%);fill-opacity:0.392157;" d="M 58.214844 46.335938 C 49.417969 46.335938 42.335938 53.417969 42.335938 62.214844 L 42.335938 67.507812 C 42.335938 58.710938 49.417969 51.628906 58.214844 51.628906 L 449.835938 51.628906 C 458.628906 51.628906 465.710938 58.710938 465.710938 67.507812 L 465.710938 62.214844 C 465.710938 53.417969 458.628906 46.335938 449.835938 46.335938 Z M 58.214844 46.335938 "/>
<path style=" stroke:none;fill-rule:nonzero;fill:rgb(1.960784%,1.960784%,1.960784%);fill-opacity:0.235294;" d="M 58.214844 448.542969 C 49.417969 448.542969 42.335938 441.460938 42.335938 432.667969 L 42.335938 427.375 C 42.335938 436.167969 49.417969 443.25 58.214844 443.25 L 449.835938 443.25 C 458.628906 443.25 465.710938 436.167969 465.710938 427.375 L 465.710938 432.667969 C 465.710938 441.460938 458.628906 448.542969 449.835938 448.542969 Z M 58.214844 448.542969 "/>
<path style=" stroke:none;fill-rule:nonzero;fill:rgb(12.941177%,12.941177%,12.941177%);fill-opacity:1;" d="M 58.214844 44.839844 C 48.613281 44.839844 40.835938 52.613281 40.835938 62.214844 L 40.835938 432.667969 C 40.835938 442.265625 48.613281 450.042969 58.214844 450.042969 L 449.832031 450.042969 C 459.433594 450.042969 467.210938 442.265625 467.210938 432.667969 L 467.210938 62.214844 C 467.210938 52.613281 459.433594 44.839844 449.832031 44.839844 Z M 58.214844 47.839844 L 449.832031 47.839844 C 457.824219 47.839844 464.210938 54.222656 464.210938 62.214844 L 464.210938 432.667969 C 464.210938 440.65625 457.824219 447.042969 449.832031 447.042969 L 58.214844 447.042969 C 50.222656 447.042969 43.839844 440.65625 43.839844 432.667969 L 43.839844 62.214844 C 43.839844 54.222656 50.222656 47.839844 58.214844 47.839844 Z M 58.214844 47.839844 "/>
<path style="fill-rule:nonzero;fill:url(#linear2);stroke-width:3;stroke-linecap:round;stroke-linejoin:miter;stroke:rgb(12.941177%,12.941177%,12.941177%);stroke-opacity:1;stroke-miterlimit:4;" d="M 105.833643 -62.834844 L 169.331486 -62.834844 C 175.178584 -62.834844 179.916413 -58.093109 179.916413 -52.249917 L 179.916413 106.500548 C 179.916413 112.34374 175.178584 117.081569 169.331486 117.081569 L 105.833643 117.081569 C 99.986546 117.081569 95.248717 112.34374 95.248717 106.500548 L 95.248717 -52.249917 C 95.248717 -58.093109 99.986546 -62.834844 105.833643 -62.834844 Z M 105.833643 -62.834844 " transform="matrix(1.000095,0,0,1.000095,0,215.020531)"/>
<path style="fill-rule:nonzero;fill:url(#linear3);stroke-width:3;stroke-linecap:round;stroke-linejoin:miter;stroke:rgb(12.941177%,12.941177%,12.941177%);stroke-opacity:1;stroke-miterlimit:4;" d="M 338.666878 -62.834844 L 402.16472 -62.834844 C 408.011818 -62.834844 412.749647 -58.093109 412.749647 -52.249917 L 412.749647 106.500548 C 412.749647 112.34374 408.011818 117.081569 402.16472 117.081569 L 338.666878 117.081569 C 332.81978 117.081569 328.081951 112.34374 328.081951 106.500548 L 328.081951 -52.249917 C 328.081951 -58.093109 332.81978 -62.834844 338.666878 -62.834844 Z M 338.666878 -62.834844 " transform="matrix(1.000095,0,0,1.000095,0,215.020531)"/>
<path style=" stroke:none;fill-rule:nonzero;fill:rgb(0%,0%,0%);fill-opacity:0.196078;" d="M 42.335938 244.792969 L 465.710938 244.792969 L 465.710938 247.441406 L 42.335938 247.441406 Z M 42.335938 244.792969 "/>
<path style=" stroke:none;fill-rule:nonzero;fill:rgb(90.196079%,90.196079%,90.196079%);fill-opacity:0.588235;" d="M 42.335938 247.441406 L 465.710938 247.441406 L 465.710938 250.085938 L 42.335938 250.085938 Z M 42.335938 247.441406 "/>
<path style=" stroke:none;fill-rule:nonzero;fill:rgb(12.941177%,12.941177%,12.941177%);fill-opacity:0.992157;" d="M 42.335938 246.117188 L 465.710938 246.117188 L 465.710938 248.761719 L 42.335938 248.761719 Z M 42.335938 246.117188 "/>
<path style="fill-rule:nonzero;fill:url(#linear4);stroke-width:3;stroke-linecap:round;stroke-linejoin:round;stroke:rgb(12.941177%,12.941177%,12.941177%);stroke-opacity:1;stroke-miterlimit:4;" d="M 116.41857 -36.376433 C 110.551943 -36.376433 105.833643 -31.654227 105.833643 -25.791506 L 105.833643 69.457211 C 105.833643 75.319932 110.551943 80.042137 116.41857 80.042137 L 158.750465 80.042137 C 164.613186 80.042137 169.331486 75.319932 169.331486 69.457211 L 169.331486 -25.791506 C 169.331486 -31.654227 164.613186 -36.376433 158.750465 -36.376433 Z M 119.062849 -28.439691 L 156.10228 -28.439691 C 159.035594 -28.439691 161.394744 -26.076635 161.394744 -23.147227 L 161.394744 66.812932 C 161.394744 69.74234 159.035594 72.105395 156.10228 72.105395 L 119.062849 72.105395 C 116.129535 72.105395 113.770385 69.74234 113.770385 66.812932 L 113.770385 -23.147227 C 113.770385 -26.076635 116.129535 -28.439691 119.062849 -28.439691 Z M 119.062849 -28.439691 " transform="matrix(1.000095,0,0,1.000095,0,215.020531)"/>
<path style="fill-rule:nonzero;fill:url(#linear5);stroke-width:3;stroke-linecap:round;stroke-linejoin:miter;stroke:rgb(12.941177%,12.941177%,12.941177%);stroke-opacity:1;stroke-miterlimit:4;" d="M 126.999591 42.9988 L 148.165538 42.9988 C 154.012636 42.9988 158.750465 47.736629 158.750465 53.583727 L 158.750465 95.915622 C 158.750465 101.762719 154.012636 106.500548 148.165538 106.500548 L 126.999591 106.500548 C 121.156399 106.500548 116.41857 101.762719 116.41857 95.915622 L 116.41857 53.583727 C 116.41857 47.736629 121.156399 42.9988 126.999591 42.9988 Z M 126.999591 42.9988 " transform="matrix(1.000095,0,0,1.000095,0,215.020531)"/>
<path style="fill-rule:nonzero;fill:url(#linear6);stroke-width:3;stroke-linecap:round;stroke-linejoin:miter;stroke:rgb(12.941177%,12.941177%,12.941177%);stroke-opacity:1;stroke-miterlimit:4;" d="M 126.999591 -52.249917 L 148.165538 -52.249917 C 154.012636 -52.249917 158.750465 -47.512088 158.750465 -41.66499 L 158.750465 -25.791506 C 158.750465 -19.948314 154.012636 -15.206579 148.165538 -15.206579 L 126.999591 -15.206579 C 121.156399 -15.206579 116.41857 -19.948314 116.41857 -25.791506 L 116.41857 -41.66499 C 116.41857 -47.512088 121.156399 -52.249917 126.999591 -52.249917 Z M 126.999591 -52.249917 " transform="matrix(1.000095,0,0,1.000095,0,215.020531)"/>
<path style="fill-rule:nonzero;fill:url(#linear7);stroke-width:3;stroke-linecap:round;stroke-linejoin:round;stroke:rgb(12.941177%,12.941177%,12.941177%);stroke-opacity:1;stroke-miterlimit:4;" d="M 349.251804 -36.376433 C 343.385177 -36.376433 338.666878 -31.654227 338.666878 -25.791506 L 338.666878 69.457211 C 338.666878 75.319932 343.385177 80.042137 349.251804 80.042137 L 391.583699 80.042137 C 397.446421 80.042137 402.16472 75.319932 402.16472 69.457211 L 402.16472 -25.791506 C 402.16472 -31.654227 397.446421 -36.376433 391.583699 -36.376433 Z M 351.896083 -28.439691 L 388.939421 -28.439691 C 391.868828 -28.439691 394.227978 -26.076635 394.227978 -23.147227 L 394.227978 66.812932 C 394.227978 69.74234 391.868828 72.105395 388.939421 72.105395 L 351.896083 72.105395 C 348.962769 72.105395 346.60362 69.74234 346.60362 66.812932 L 346.60362 -23.147227 C 346.60362 -26.076635 348.962769 -28.439691 351.896083 -28.439691 Z M 351.896083 -28.439691 " transform="matrix(1.000095,0,0,1.000095,0,215.020531)"/>
<path style="fill-rule:nonzero;fill:url(#linear8);stroke-width:3;stroke-linecap:round;stroke-linejoin:miter;stroke:rgb(12.941177%,12.941177%,12.941177%);stroke-opacity:1;stroke-miterlimit:4;" d="M 359.832825 42.9988 L 380.998773 42.9988 C 386.845871 42.9988 391.583699 47.736629 391.583699 53.583727 L 391.583699 95.915622 C 391.583699 101.762719 386.845871 106.500548 380.998773 106.500548 L 359.832825 106.500548 C 353.989633 106.500548 349.251804 101.762719 349.251804 95.915622 L 349.251804 53.583727 C 349.251804 47.736629 353.989633 42.9988 359.832825 42.9988 Z M 359.832825 42.9988 " transform="matrix(1.000095,0,0,1.000095,0,215.020531)"/>
<path style="fill-rule:nonzero;fill:url(#linear9);stroke-width:3;stroke-linecap:round;stroke-linejoin:miter;stroke:rgb(12.941177%,12.941177%,12.941177%);stroke-opacity:1;stroke-miterlimit:4;" d="M 359.832825 -52.249917 L 380.998773 -52.249917 C 386.845871 -52.249917 391.583699 -47.512088 391.583699 -41.66499 L 391.583699 -25.791506 C 391.583699 -19.948314 386.845871 -15.206579 380.998773 -15.206579 L 359.832825 -15.206579 C 353.989633 -15.206579 349.251804 -19.948314 349.251804 -25.791506 L 349.251804 -41.66499 C 349.251804 -47.512088 353.989633 -52.249917 359.832825 -52.249917 Z M 359.832825 -52.249917 " transform="matrix(1.000095,0,0,1.000095,0,215.020531)"/>
</g>
</svg>

<svg xmlns="http://www.w3.org/2000/svg" width="512pt" height="512pt" viewBox="0 0 512 512"><defs><linearGradient id="a" gradientUnits="userSpaceOnUse" x1="254" y1="233.5" x2="254" y2="254.667" gradientTransform="matrix(1.0001 0 0 1.0001 0 215.02)"><stop offset="0" stop-opacity=".275"/><stop offset="1" stop-opacity="0"/></linearGradient><radialGradient id="b" gradientUnits="userSpaceOnUse" cx="450.909" cy="189.579" fx="450.909" fy="189.579" r="21.167" gradientTransform="matrix(0 -1.25012 -2.25021 0 849.967 1017.525)"><stop offset="0" stop-opacity=".314"/><stop offset=".222" stop-opacity=".275"/><stop offset="1" stop-opacity="0"/></radialGradient><radialGradient id="c" gradientUnits="userSpaceOnUse" cx="450.909" cy="189.579" fx="450.909" fy="189.579" r="21.167" gradientTransform="matrix(0 1.25012 2.25021 0 -339.272 -120.44)"><stop offset="0" stop-opacity=".314"/><stop offset=".222" stop-opacity=".275"/><stop offset="1" stop-opacity="0"/></radialGradient><radialGradient id="d" gradientUnits="userSpaceOnUse" cx="450.909" cy="189.579" fx="450.909" fy="189.579" r="21.167" gradientTransform="matrix(0 -1.25012 2.25021 0 -339.272 1017.525)"><stop offset="0" stop-opacity=".314"/><stop offset=".222" stop-opacity=".275"/><stop offset="1" stop-opacity="0"/></radialGradient><radialGradient id="e" gradientUnits="userSpaceOnUse" cx="450.909" cy="189.579" fx="450.909" fy="189.579" r="21.167" gradientTransform="matrix(0 1.25012 -2.25021 0 849.967 -120.44)"><stop offset="0" stop-opacity=".314"/><stop offset=".222" stop-opacity=".275"/><stop offset="1" stop-opacity="0"/></radialGradient><linearGradient id="f" gradientUnits="userSpaceOnUse" x1="254" y1="-168.667" x2="254" y2="233.5" gradientTransform="matrix(1.0001 0 0 1.0001 0 215.02)"><stop offset="0" stop-color="#9fa8da"/><stop offset="1" stop-color="#7986cb"/></linearGradient><linearGradient id="g" gradientUnits="userSpaceOnUse" x1="148.167" y1="-168.667" x2="148.167" y2="233.5" gradientTransform="translate(-31.75)"><stop offset="0" stop-color="#7986cb"/><stop offset="1" stop-color="#5c6bc0"/></linearGradient><linearGradient id="h" gradientUnits="userSpaceOnUse" x1="148.167" y1="-168.667" x2="148.167" y2="233.5" gradientTransform="translate(201.083)"><stop offset="0" stop-color="#7986cb"/><stop offset="1" stop-color="#5c6bc0"/></linearGradient><linearGradient id="i" gradientUnits="userSpaceOnUse" x1="960" y1="1115.118" x2="960" y2="675.118" gradientTransform="matrix(.26458 0 0 .26458 -116.417 -215)"><stop offset="0" stop-color="#bdbdbd"/><stop offset="1" stop-color="#e0e0e0"/></linearGradient><linearGradient id="j" gradientUnits="userSpaceOnUse" x1="164.042" y1="64.167" x2="164.042" y2=".667" gradientTransform="translate(-21.167 42.333)"><stop offset="0" stop-color="#bdbdbd"/><stop offset="1" stop-color="#e0e0e0"/></linearGradient><linearGradient id="k" gradientUnits="userSpaceOnUse" x1="158.75" y1="-115.75" x2="158.75" y2="286.417" gradientTransform="translate(-21.167 -52.917)"><stop offset="0" stop-color="#9fa8da"/><stop offset="1" stop-color="#7986cb"/></linearGradient><linearGradient id="l" gradientUnits="userSpaceOnUse" x1="960" y1="1115.118" x2="960" y2="675.118" gradientTransform="matrix(.26458 0 0 .26458 116.417 -215)"><stop offset="0" stop-color="#bdbdbd"/><stop offset="1" stop-color="#e0e0e0"/></linearGradient><linearGradient id="m" gradientUnits="userSpaceOnUse" x1="164.042" y1="64.167" x2="164.042" y2=".667" gradientTransform="translate(211.667 42.333)"><stop offset="0" stop-color="#bdbdbd"/><stop offset="1" stop-color="#e0e0e0"/></linearGradient><linearGradient id="n" gradientUnits="userSpaceOnUse" x1="158.75" y1="-115.75" x2="158.75" y2="286.417" gradientTransform="translate(211.667 -52.917)"><stop offset="0" stop-color="#9fa8da"/><stop offset="1" stop-color="#7986cb"/></linearGradient></defs><path d="M63.508 448.543a21.123 21.123 0 0 1-21.172-21.168v-2.648a21.124 21.124 0 0 0 21.172 21.171h381.035a21.123 21.123 0 0 0 21.168-21.171v2.648a21.122 21.122 0 0 1-21.168 21.168zm0 0" fill-opacity=".196"/><path d="M82.027 448.543h346.637v21.168H82.027zm0 0" fill="url(#a)"/><path d="M428.664 448.543h42.34v-21.168h-42.34zm0 0" fill="url(#b)"/><path d="M82.027 448.543H39.691v21.168h42.336zm0 0" fill="url(#c)"/><path d="M82.027 448.543H39.691v-21.168h42.336zm0 0" fill="url(#d)"/><path d="M428.664 448.543h42.34v21.168h-42.34zm0 0" fill="url(#e)"/><path d="M58.215 46.336h391.62c8.767 0 15.876 7.11 15.876 15.879v370.453c0 8.766-7.11 15.875-15.875 15.875H58.215c-8.77 0-15.88-7.11-15.88-15.875V62.215c0-8.77 7.11-15.88 15.88-15.88zm0 0" fill="url(#f)"/><path d="M58.215 46.336a15.844 15.844 0 0 0-15.88 15.879v5.293a15.844 15.844 0 0 1 15.88-15.88h391.62a15.843 15.843 0 0 1 15.876 15.88v-5.293a15.843 15.843 0 0 0-15.875-15.88zm0 0" fill="#fff" fill-opacity=".392"/><path d="M58.215 448.543a15.843 15.843 0 0 1-15.88-15.875v-5.293a15.843 15.843 0 0 0 15.88 15.875h391.62a15.843 15.843 0 0 0 15.876-15.875v5.293a15.843 15.843 0 0 1-15.875 15.875zm0 0" fill="#050505" fill-opacity=".235"/><path d="M58.215 44.84c-9.602 0-17.38 7.773-17.38 17.375v370.453c0 9.598 7.778 17.375 17.38 17.375h391.617c9.602 0 17.379-7.777 17.379-17.375V62.215c0-9.602-7.777-17.375-17.379-17.375zm0 3h391.617a14.31 14.31 0 0 1 14.379 14.375v370.453a14.313 14.313 0 0 1-14.379 14.375H58.215a14.31 14.31 0 0 1-14.375-14.375V62.215A14.308 14.308 0 0 1 58.215 47.84zm0 0" fill="#212121"/><path d="M105.834-62.835h63.497c5.848 0 10.585 4.742 10.585 10.585V106.5c0 5.844-4.737 10.582-10.585 10.582h-63.497c-5.847 0-10.585-4.738-10.585-10.581V-52.25c0-5.844 4.738-10.586 10.585-10.586zm0 0" transform="matrix(1.0001 0 0 1.0001 0 215.02)" fill="url(#g)" stroke-width="3" stroke-linecap="round" stroke="#212121"/><path d="M338.667-62.835h63.498c5.847 0 10.585 4.742 10.585 10.585V106.5c0 5.844-4.738 10.582-10.585 10.582h-63.498c-5.847 0-10.585-4.738-10.585-10.581V-52.25c0-5.844 4.738-10.586 10.585-10.586zm0 0" transform="matrix(1.0001 0 0 1.0001 0 215.02)" fill="url(#h)" stroke-width="3" stroke-linecap="round" stroke="#212121"/><path d="M42.336 244.793H465.71v2.648H42.336zm0 0" fill-opacity=".196"/><path d="M42.336 247.441H465.71v2.645H42.336zm0 0" fill="#e6e6e6" fill-opacity=".588"/><path d="M42.336 246.117H465.71v2.645H42.336zm0 0" fill="#212121" fill-opacity=".992"/><path d="M116.419-36.376a10.561 10.561 0 0 0-10.585 10.584v95.25a10.561 10.561 0 0 0 10.585 10.584h42.331a10.56 10.56 0 0 0 10.581-10.585v-95.249a10.56 10.56 0 0 0-10.58-10.584zm2.644 7.936h37.04a5.282 5.282 0 0 1 5.292 5.293v89.96c0 2.93-2.36 5.292-5.293 5.292h-37.04a5.282 5.282 0 0 1-5.292-5.292v-89.96c0-2.93 2.36-5.293 5.293-5.293zm0 0" transform="matrix(1.0001 0 0 1.0001 0 215.02)" fill="url(#i)" stroke-width="3" stroke-linecap="round" stroke-linejoin="round" stroke="#212121"/><path d="M127 42.999h21.166c5.847 0 10.584 4.738 10.584 10.585v42.332c0 5.847-4.737 10.585-10.584 10.585H127c-5.844 0-10.581-4.738-10.581-10.585V53.584c0-5.847 4.737-10.585 10.58-10.585zm0 0" transform="matrix(1.0001 0 0 1.0001 0 215.02)" fill="url(#j)" stroke-width="3" stroke-linecap="round" stroke="#212121"/><path d="M127-52.25h21.166c5.847 0 10.584 4.738 10.584 10.585v15.873c0 5.844-4.737 10.585-10.584 10.585H127c-5.844 0-10.581-4.741-10.581-10.585v-15.873c0-5.847 4.737-10.585 10.58-10.585zm0 0" transform="matrix(1.0001 0 0 1.0001 0 215.02)" fill="url(#k)" stroke-width="3" stroke-linecap="round" stroke="#212121"/><path d="M349.252-36.376a10.561 10.561 0 0 0-10.585 10.584v95.25a10.561 10.561 0 0 0 10.585 10.584h42.332a10.56 10.56 0 0 0 10.58-10.585v-95.249a10.56 10.56 0 0 0-10.58-10.584zm2.644 7.936h37.043a5.28 5.28 0 0 1 5.289 5.293v89.96a5.28 5.28 0 0 1-5.289 5.292h-37.043a5.282 5.282 0 0 1-5.292-5.292v-89.96c0-2.93 2.359-5.293 5.292-5.293zm0 0" transform="matrix(1.0001 0 0 1.0001 0 215.02)" fill="url(#l)" stroke-width="3" stroke-linecap="round" stroke-linejoin="round" stroke="#212121"/><path d="M359.833 42.999h21.166c5.847 0 10.585 4.738 10.585 10.585v42.332c0 5.847-4.738 10.585-10.585 10.585h-21.166c-5.843 0-10.581-4.738-10.581-10.585V53.584c0-5.847 4.738-10.585 10.58-10.585zm0 0" transform="matrix(1.0001 0 0 1.0001 0 215.02)" fill="url(#m)" stroke-width="3" stroke-linecap="round" stroke="#212121"/><path d="M359.833-52.25h21.166c5.847 0 10.585 4.738 10.585 10.585v15.873c0 5.844-4.738 10.585-10.585 10.585h-21.166c-5.843 0-10.581-4.741-10.581-10.585v-15.873c0-5.847 4.738-10.585 10.58-10.585zm0 0" transform="matrix(1.0001 0 0 1.0001 0 215.02)" fill="url(#n)" stroke-width="3" stroke-linecap="round" stroke="#212121"/></svg>
